X:1
T: Madam Frederick
C:William Marshall
R:Strathspey
Q: 128
K:A
M:4/4
L:1/16
|:C2|A,3B, C3D E3F EC3|A,3C EC3 EA3 Ac3|A,3B, C3D E3F EC3|B,3B dcBA GB3 B3c|
A,3B, C3D E3F EC3|A,3C EC3 EA3 Ac3|e3c AE3 Fd3 f3e|d3c B3A GB3 B2c2|
AA3 c3A e3A c3A|E3A e3A fedc B2c2|AA3 c3A e3A c3A|F2GA FEDC B,B3 B3c|
AA3 c3A e3A c3A|E3A e3A fedc B2c2|A3c AE3 F3A FD3|E3D C3B, A,A3 A2:|
